src/assets/images/reactions/men/big/fire.svg

<svg width="24" height="24" viewBox="0 0 24 24" fill="none" xmlns="http://www.w3.org/2000/svg">
<path d="M10.8357 23.9825C10.8357 23.9825 -4.00529 25.2308 5.68349 6.62629C5.68349 6.62629 6.02046 12.676 7.35419 11.7083C9.55554 10.115 5.71813 4.0684 14.0669 0C14.0669 0 12.8985 6.49134 17.5028 11.0413C17.5028 11.0413 17.0225 7.69514 20.5261 5.48689C20.5261 5.48689 18.2586 8.833 20.6631 13.7188C21.8015 16.0328 24.2328 23.9825 10.8357 23.9825Z" fill="#F5581F"/>
<path d="M9.14249 11.747C9.14249 11.747 10.155 12.733 10.092 13.5335C10.092 13.5335 12.5595 10.58 12.5595 6.54224C12.5595 6.54224 17.4944 13.9659 16.8614 19.4498C16.8614 19.4498 18.1274 19.0189 18.2534 17.7859C18.2534 17.7859 18.9494 23.9936 12.4319 23.9936C5.91447 23.9936 4.776 19.4421 6.35852 17.2308C7.10332 16.1895 9.83848 15.3829 9.14249 11.747Z" fill="#F98D25"/>
<path d="M13.1089 14.8215C13.1089 14.8215 17.2848 22.8188 12.657 23.8907C9.02741 24.7311 7.9724 20.2087 10.6808 18.3394C13.3892 16.4701 13.1089 14.8215 13.1089 14.8215Z" fill="#FFF200"/>
</svg>

<svg xmlns="http://www.w3.org/2000/svg" width="24" height="24" fill="none">
  <path fill="#F5581F" d="M10.836 23.983S-4.005 25.23 5.683 6.626c0 0 .337 6.05 1.671 5.082C9.556 10.115 5.718 4.068 14.067 0c0 0-1.168 6.491 3.436 11.041 0 0-.48-3.346 3.023-5.554 0 0-2.267 3.346.137 8.232 1.139 2.314 3.57 10.264-9.827 10.264Z"/>
  <path fill="#F98D25" d="M9.142 11.747s1.013.986.95 1.787c0 0 2.467-2.954 2.467-6.992 0 0 4.935 7.424 4.302 12.908 0 0 1.266-.431 1.392-1.664 0 0 .696 6.208-5.821 6.208-6.518 0-7.656-4.552-6.073-6.763.744-1.042 3.48-1.848 2.783-5.484Z"/>
  <path fill="#FFF200" d="M13.109 14.822s4.176 7.997-.452 9.069c-3.63.84-4.685-3.682-1.976-5.552 2.708-1.869 2.428-3.517 2.428-3.517Z"/>
</svg>
